icons/pages-16.svg

<svg width="16" height="16" viewBox="0 0 16 16" fill="none" xmlns="http://www.w3.org/2000/svg">
<path fill-rule="evenodd" clip-rule="evenodd" d="M6.5 1.75C6.5 0.783502 7.2835 0 8.25 0H11.8358C12.2999 0 12.745 0.184375 13.0732 0.512563L15.4874 2.92678C15.8156 3.25497 16 3.70009 16 4.16421V10.25C16 11.2165 15.2165 12 14.25 12H11.75C11.3358 12 11 11.6642 11 11.25C11 10.8358 11.3358 10.5 11.75 10.5H14.25C14.3881 10.5 14.5 10.3881 14.5 10.25V5.5H12.25C11.2835 5.5 10.5 4.7165 10.5 3.75V1.5H8.25C8.11193 1.5 8 1.61193 8 1.75V2.25C8 2.66421 7.66421 3 7.25 3C6.83579 3 6.5 2.66421 6.5 2.25V1.75ZM12 1.56149V3.75C12 3.88807 12.1119 4 12.25 4H14.4385C14.4348 3.99569 14.4308 3.9915 14.4268 3.98744L12.0126 1.57322C12.0085 1.56916 12.0043 1.56525 12 1.56149ZM2.25 5.5C2.11193 5.5 2 5.61193 2 5.75V14.25C2 14.3881 2.11193 14.5 2.25 14.5H8.25C8.38807 14.5 8.5 14.3881 8.5 14.25V9.5H6.25C5.2835 9.5 4.5 8.7165 4.5 7.75V5.5H2.25ZM6 5.5615V7.75C6 7.88807 6.11193 8 6.25 8H8.43851C8.43475 7.99569 8.43084 7.9915 8.42678 7.98744L6.01256 5.57322C6.0085 5.56916 6.00431 5.56525 6 5.5615ZM0.5 5.75C0.5 4.7835 1.2835 4 2.25 4H5.83579C6.29992 4 6.74503 4.18438 7.07322 4.51256L9.48744 6.92678C9.81563 7.25496 10 7.70008 10 8.16421V14.25C10 15.2165 9.2165 16 8.25 16H2.25C1.2835 16 0.5 15.2165 0.5 14.25V5.75Z" fill="black"/>
</svg>

<svg xmlns="http://www.w3.org/2000/svg" width="16" height="16" viewBox="0 0 16 16"><path fill-rule="evenodd" d="M6.5 1.75C6.5.784 7.284 0 8.25 0h3.586c.464 0 .909.184 1.237.513l2.414 2.414c.329.328.513.773.513 1.237v6.086A1.75 1.75 0 0114.25 12h-2.5a.75.75 0 010-1.5h2.5a.25.25 0 00.25-.25V5.5h-2.25a1.75 1.75 0 01-1.75-1.75V1.5H8.25a.25.25 0 00-.25.25v.5a.75.75 0 01-1.5 0v-.5zm5.5-.189V3.75c0 .138.112.25.25.25h2.188a.252.252 0 00-.011-.013l-2.414-2.414A.278.278 0 0012 1.561zM2.25 5.5a.25.25 0 00-.25.25v8.5c0 .138.112.25.25.25h6a.25.25 0 00.25-.25V9.5H6.25A1.75 1.75 0 014.5 7.75V5.5H2.25zM6 5.561V7.75c0 .138.112.25.25.25h2.189a.253.253 0 00-.012-.013L6.013 5.573A.248.248 0 006 5.561zM.5 5.75C.5 4.784 1.284 4 2.25 4h3.586c.464 0 .909.184 1.237.513l2.414 2.414c.329.328.513.773.513 1.237v6.086A1.75 1.75 0 018.25 16h-6A1.75 1.75 0 01.5 14.25v-8.5z"/></svg>
